X: 65
T: Requiem / Gradual Si ambulem
N: Derived from Ock1013c-Requiem-Gradual_Si_ambulem.krn
C: Johannes Ockeghem
%%abc-version 2.0
%%abcx-abcm2ps-target-version 5.9.1 (29 Sep 2008)
%%abc-creator hum2abc beta
%%abcx-conversion-date 2019/02/17 07:26:15
%%abc-edited-by Jesse Rodin
%%abc-edited-by Chris Gage 07-10-2012
%%abcx-initial-encoding-date 2012/10/12/
%%humdrum-veritas 3770106726
%%humdrum-veritas-data 65918845
%%linebreak <none>
%%barnumbers 0
L: 1/4
M: 2/1
Q: 1/2=120
V: 1 clef=treble
V: 2 clef=treble-8
V: 3 clef=treble-8
V: 4 clef=treble-8
V: 5 clef=bass
K: C
[V:1] F8- | 
[V:2] z8 | 
[V:3] D8- | 
[V:4] A6_B2 | 
[V:5] z8 | 
[V:1] F8- | 
[V:2] z8 | 
[V:3] D8 | 
[V:4] A6G2 | 
[V:5] z8 | 
[V:1] F8 | 
[V:2] z8 | 
[V:3] c4d3B | 
[V:4] A4D4 | 
[V:5] z8 | 
[V:1] F6G2 | 
[V:2] z8 | 
[V:3] c4d4 | 
[V:4] A4_B4 | 
[V:5] z8 | 
[V:1] A4_B4- | 
[V:2] z8 | 
[V:3] e8- | 
[V:4] A4G4 | 
[V:5] z8 | 
[V:1] B2A2A4- | 
[V:2] z8 | 
[V:3] e8 | 
[V:4] A8 | 
[V:5] z8 | 
[V:1] A4G4 | 
[V:2] z8 | 
[V:3] d8 | 
[V:4] _B8 | 
[V:5] z8 | 
[V:1] A6G2 | 
[V:2] z8 | 
[V:3] c6d2 | 
[V:4] A8- | 
[V:5] z8 | 
[V:1] A4c4- | 
[V:2] z8 | 
[V:3] e8 | 
[V:4] A8 | 
[V:5] z8 | 
[V:1] c4_B4 | 
[V:2] z8 | 
[V:3] f8 | 
[V:4] F4G4 | 
[V:5] z8 | 
[V:1] A6G2 | 
[V:2] z8 | 
[V:3] F6E2 | 
[V:4] A8 | 
[V:5] z8 | 
[V:1] F6ED | 
[V:2] z8 | 
[V:3] D8 | 
[V:4] _B8 | 
[V:5] z8 | 
[V:1] E6F2 | 
[V:2] z8 | 
[V:3] C8- | 
[V:4] c8- | 
[V:5] z8 | 
[V:1] G4A4- | 
[V:2] z8 | 
[V:3] C8 | 
[V:4] c8 | 
[V:5] z8 | 
[V:1] A4G4- | 
[V:2] z8 | 
[V:3] F4E4 | 
[V:4] A4B4 | 
[V:5] z8 | 
[V:1] G4A4- | 
[V:2] z8 | 
[V:3] C8 | 
[V:4] c8 | 
[V:5] z8 | 
[V:1] A2F2F4- | 
[V:2] z8 | 
[V:3] D8 | 
[V:4] F8 | 
[V:5] z8 | 
[V:1] F4E4 | 
[V:2] z8 | 
[V:3] C8 | 
[V:4] G8 | 
[V:5] z8 | 
[V:1] F8 | 
[V:2] z8 | 
[V:3] c8- | 
[V:4] F8- | 
[V:5] z8 | 
[V:1] z8 | 
[V:2] z8 | 
[V:3] c4d4- | 
[V:4] F8 | 
[V:5] z8 | 
[V:1] A8- | 
[V:2] z8 | 
[V:3] d4c4 | 
[V:4] z8 | 
[V:5] z8 | 
[V:1] A4F4 | 
[V:2] z8 | 
[V:3] A4d4- | 
[V:4] F8- | 
[V:5] z8 | 
[V:1] A8 | 
[V:2] z8 | 
[V:3] d4c2d2 | 
[V:4] F8 | 
[V:5] z8 | 
[V:1] G8- | 
[V:2] z8 | 
[V:3] e4B4 | 
[V:4] E8- | 
[V:5] z8 | 
[V:1] G8 | 
[V:2] z8 | 
[V:3] c8 | 
[V:4] E8 | 
[V:5] z8 | 
[V:1] F8 | 
[V:2] z8 | 
[V:3] d8 | 
[V:4] D8 | 
[V:5] z8 | 
[V:1] E8- | 
[V:2] z8 | 
[V:3] z4G4 | 
[V:4] A4B4 | 
[V:5] z8 | 
[V:1] E8 | 
[V:2] z8 | 
[V:3] E2F2G2A2 | 
[V:4] c8 | 
[V:5] z8 | 
[V:1] F8 | 
[V:2] z8 | 
[V:3] D8 | 
[V:4] d6c2 | 
[V:5] z8 | 
[V:1] D8 | 
[V:2] z8 | 
[V:3] F4G4 | 
[V:4] d4B4 | 
[V:5] z8 | 
[V:1] F6G2 | 
[V:2] z8 | 
[V:3] D8 | 
[V:4] A4d4- | 
[V:5] z8 | 
[V:1] A8 | 
[V:2] z8 | 
[V:3] F6G2 | 
[V:4] d4c4- | 
[V:5] z8 | 
[V:1] F4G4- | 
[V:2] z8 | 
[V:3] A4B4 | 
[V:4] c4B4 | 
[V:5] z8 | 
[V:1] G4^F4 | 
[V:2] z8 | 
[V:3] c6A2 | 
[V:4] A8 | 
[V:5] z8 | 
[V:1] G8 | 
[V:2] z8 | 
[V:3] B2e4d2- | 
[V:4] G6F2 | 
[V:5] z8 | 
[V:1] z8 | 
[V:2] z8 | 
[V:3] d2c2d2f2- | 
[V:4] E4D4 | 
[V:5] z8 | 
[V:1] z8 | 
[V:2] z8 | 
[V:3] f2e4c2- | 
[V:4] A4A4- | 
[V:5] z8 | 
[V:1] z8 | 
[V:2] z8 | 
[V:3] cdA2B4 | 
[V:4] A4G4 | 
[V:5] z8 | 
[V:1] z8 | 
[V:2] z8 | 
[V:3] c4A4 | 
[V:4] A4c4 | 
[V:5] z8 | 
[V:1] D8 | 
[V:2] z8 | 
[V:3] G8 | 
[V:4] B6G2 | 
[V:5] z8 | 
[V:1] A4A4- | 
[V:2] z8 | 
[V:3] F4D4 | 
[V:4] c4d4 | 
[V:5] z8 | 
[V:1] A4F4 | 
[V:2] z8 | 
[V:3] F8 | 
[V:4] A8 | 
[V:5] z8 | 
[V:1] G8 | 
[V:2] z8 | 
[V:3] E8 | 
[V:4] B8 | 
[V:5] z8 | 
[V:1] A8- | 
[V:2] z8 | 
[V:3] e8 | 
[V:4] A8 | 
[V:5] z8 | 
[V:1] A4c4 | 
[V:2] z8 | 
[V:3] c6d2 | 
[V:4] z4A4 | 
[V:5] z8 | 
[V:1] B4c4- | 
[V:2] z8 | 
[V:3] e4f4- | 
[V:4] G4F4 | 
[V:5] z8 | 
[V:1] c4A4- | 
[V:2] z8 | 
[V:3] f2e2c4 | 
[V:4] A6B2 | 
[V:5] z8 | 
[V:1] A4F4- | 
[V:2] z8 | 
[V:3] e4d4 | 
[V:4] c4z4 | 
[V:5] z8 | 
[V:1] F4A4- | 
[V:2] z8 | 
[V:3] c4f4- | 
[V:4] F6E2 | 
[V:5] z8 | 
[V:1] A2B2c4- | 
[V:2] z8 | 
[V:3] f4e4 | 
[V:4] D4C4 | 
[V:5] z8 | 
[V:1] c2B2G4 | 
[V:2] z8 | 
[V:3] c6B2 | 
[V:4] E8 | 
[V:5] z8 | 
[V:1] F4G4- | 
[V:2] z8 | 
[V:3] d4e4 | 
[V:4] D4C4 | 
[V:5] z8 | 
[V:1] G8 | 
[V:2] z8 | 
[V:3] B4c4 | 
[V:4] z4E4 | 
[V:5] z8 | 
[V:1] F4E4- | 
[V:2] z8 | 
[V:3] d4A4- | 
[V:4] D4C4 | 
[V:5] z8 | 
[V:1] E2D2D4- | 
[V:2] z8 | 
[V:3] A4F4 | 
[V:4] D8 | 
[V:5] z8 | 
[V:1] D4C4 | 
[V:2] z8 | 
[V:3] G8 | 
[V:4] E8 | 
[V:5] z8 | 
[V:1] D4E4 | 
[V:2] z8 | 
[V:3] A8 | 
[V:4] D6C2 | 
[V:5] z8 | 
[V:1] F4G4 | 
[V:2] z8 | 
[V:3] z8 | 
[V:4] D4E4 | 
[V:5] z8 | 
[V:1] D8 | 
[V:2] z8 | 
[V:3] A4_B4 | 
[V:4] F4G4 | 
[V:5] z8 | 
[V:1] C4_B,4 | 
[V:2] z8 | 
[V:3] A4F4 | 
[V:4] z4D4 | 
[V:5] z8 | 
[V:1] _E4D4- | 
[V:2] z8 | 
[V:3] G8- | 
[V:4] C4_B,4 | 
[V:5] z8 | 
[V:1] D2C2C4- | 
[V:2] z8 | 
[V:3] G8 | 
[V:4] _E8 | 
[V:5] z8 | 
[V:1] C4B,4 | 
[V:2] z8 | 
[V:3] F8 | 
[V:4] D8 | 
[V:5] z8 | 
[V:1] C8- | 
[V:2] z8 | 
[V:3] G8 | 
[V:4] C8 | 
[V:5] z8 | 
[V:1] C8 | 
[V:2] z8 | 
[V:3] A6G2 | 
[V:4] z4F4- | 
[V:5] z8 | 
[V:1] z8 | 
[V:2] z8 | 
[V:3] A4B2c2- | 
[V:4] F4D4 | 
[V:5] z8 | 
[V:1] z8 | 
[V:2] z8 | 
[V:3] c2B2G4 | 
[V:4] E8 | 
[V:5] z8 | 
[V:1] F8 | 
[V:2] z8 | 
[V:3] A4D4 | 
[V:4] F8 | 
[V:5] z8 | 
[V:1] D4E4- | 
[V:2] z8 | 
[V:3] z4B4 | 
[V:4] G8 | 
[V:5] z8 | 
[V:1] E4F4- | 
[V:2] z8 | 
[V:3] c8 | 
[V:4] A8 | 
[V:5] z8 | 
[V:1] F4G4 | 
[V:2] z8 | 
[V:3] d8 | 
[V:4] _B8 | 
[V:5] z8 | 
[V:1] A6G2 | 
[V:2] z8 | 
[V:3] z4e4- | 
[V:4] A8- | 
[V:5] z8 | 
[V:1] A4c4- | 
[V:2] z8 | 
[V:3] e8- | 
[V:4] A8 | 
[V:5] z8 | 
[V:1] c2B2G4- | 
[V:2] z8 | 
[V:3] e4E4- | 
[V:4] c6B2 | 
[V:5] z8 | 
[V:1] G4A4 | 
[V:2] z8 | 
[V:3] E4D4 | 
[V:4] G4F4 | 
[V:5] z8 | 
[V:1] _B4G4- | 
[V:2] z8 | 
[V:3] d8 | 
[V:4] G8 | 
[V:5] z8 | 
[V:1] G2^FEF4 | 
[V:2] z8 | 
[V:3] c8 | 
[V:4] A8 | 
[V:5] z8 | 
[V:1] G8- | 
[V:2] z8 | 
[V:3] d4G4- | 
[V:4] G6A2 | 
[V:5] z8 | 
[V:1] G8 | 
[V:2] z8 | 
[V:3] G2A2B4- | 
[V:4] B6c2 | 
[V:5] z8 | 
[V:1] z8 | 
[V:2] z8 | 
[V:3] B2c2d4 | 
[V:4] d4G4- | 
[V:5] z8 | 
[V:1] D8 | 
[V:2] z8 | 
[V:3] G2A2B4 | 
[V:4] G2F2G4 | 
[V:5] z8 | 
[V:1] D4D4- | 
[V:2] z8 | 
[V:3] A8 | 
[V:4] F2D4F2 | 
[V:5] z8 | 
[V:1] D2B,2^C4 | 
[V:2] z8 | 
[V:3] G8 | 
[V:4] E2D2E4 | 
[V:5] z8 | 
[V:1] D8 | 
[V:2] z8 | 
[V:3] A8 | 
[V:4] D8- | 
[V:5] z8 | 
[V:1] F8 | 
[V:2] z8 | 
[V:3] B4c4- | 
[V:4] D4A4- | 
[V:5] z8 | 
[V:1] E4F4 | 
[V:2] z8 | 
[V:3] c2B2c4 | 
[V:4] A2G2A4 | 
[V:5] z8 | 
[V:1] G4A2A2- | 
[V:2] z8 | 
[V:3] d4D4- | 
[V:4] _B4A4 | 
[V:5] z8 | 
[V:1] A2GFE4 | 
[V:2] z8 | 
[V:3] D4C2E2 | 
[V:4] F4G4 | 
[V:5] z8 | 
[V:1] z4F4 | 
[V:2] z8 | 
[V:3] D2C2D4 | 
[V:4] A2A4GF | 
[V:5] z8 | 
[V:1] G4F2D2- | 
[V:2] z8 | 
[V:3] C4D4 | 
[V:4] E4z2F2- | 
[V:5] z8 | 
[V:1] D2E4F2 | 
[V:2] z8 | 
[V:3] A2B2c4 | 
[V:4] F2G2A4 | 
[V:5] z8 | 
[V:1] G2A2_BAGF | 
[V:2] z8 | 
[V:3] d2D4E2 | 
[V:4] _B2A2F2G2 | 
[V:5] z8 | 
[V:1] E2F4D2- | 
[V:2] z8 | 
[V:3] C2D2z2A2- | 
[V:4] A4D3E | 
[V:5] z8 | 
[V:1] D2CB,A,2D2- | 
[V:2] z8 | 
[V:3] A2G2F2A2- | 
[V:4] F2G2A2D2 | 
[V:5] z8 | 
[V:1] D2^C2D4 ||  
[V:2] z8 ||  
[V:3] A2G2A4 ||  
[V:4] E4D4 ||  
[V:5] z8 ||  
[V:1]  [K:C] [K:clef=treble][M:2/1]A8 | 
[V:2]  [K:C] [K:clef=treble-8][M:2/1]A8 | 
[V:3]  [K:C] [K:clef=treble-8][M:2/1]z8 | 
[V:4]  [K:C] [K:clef=treble-8][M:2/1]z8 | 
[V:5]  [K:C] [K:clef=bass][M:2/1]z8 | 
[V:1] F6G2 | 
[V:2] _B6AG | 
[V:3] z8 | 
[V:4] z8 | 
[V:5] z8 | 
[V:1] A8 | 
[V:2] F4c4- | 
[V:3] z8 | 
[V:4] z8 | 
[V:5] z8 | 
[V:1] G4E4- | 
[V:2] c8- | 
[V:3] z8 | 
[V:4] z8 | 
[V:5] z8 | 
[V:1] E4G4- | 
[V:2] c4B4 | 
[V:3] z8 | 
[V:4] z8 | 
[V:5] z8 | 
[V:1] G2F2E2D2 | 
[V:2] G8 | 
[V:3] z8 | 
[V:4] z8 | 
[V:5] z8 | 
[V:1] C4D4- | 
[V:2] A4G2F2 | 
[V:3] z8 | 
[V:4] z8 | 
[V:5] z8 | 
[V:1] D2B,2^C4 | 
[V:2] E2D2E4 | 
[V:3] z8 | 
[V:4] z8 | 
[V:5] z8 | 
[V:1] D8- | 
[V:2] D8 | 
[V:3] z8 | 
[V:4] z8 | 
[V:5] z8 | 
[V:1] D8 | 
[V:2] z4D4- | 
[V:3] z8 | 
[V:4] z8 | 
[V:5] z8 | 
[V:1] z8 | 
[V:2] D4C4 | 
[V:3] z8 | 
[V:4] z8 | 
[V:5] z8 | 
[V:1] D8 | 
[V:2] D4F4- | 
[V:3] z8 | 
[V:4] z8 | 
[V:5] z8 | 
[V:1] C6D2 | 
[V:2] F2G2A4 | 
[V:3] z8 | 
[V:4] z8 | 
[V:5] z8 | 
[V:1] E6F2 | 
[V:2] A4c4- | 
[V:3] z8 | 
[V:4] z8 | 
[V:5] z8 | 
[V:1] G6E2 | 
[V:2] c2B2G4 | 
[V:3] z8 | 
[V:4] z8 | 
[V:5] z8 | 
[V:1] F2G2A2GA | 
[V:2] A8 | 
[V:3] z8 | 
[V:4] z8 | 
[V:5] z8 | 
[V:1] _B4G4- | 
[V:2] G4_B4 | 
[V:3] z8 | 
[V:4] z8 | 
[V:5] z8 | 
[V:1] G2^FEF4 | 
[V:2] A8 | 
[V:3] z8 | 
[V:4] z8 | 
[V:5] z8 | 
[V:1] G8 | 
[V:2] G8- | 
[V:3] z8 | 
[V:4] z8 | 
[V:5] z8 | 
[V:1] _B6A2 | 
[V:2] G4_B4- | 
[V:3] z8 | 
[V:4] z8 | 
[V:5] z8 | 
[V:1] G2F2F4 | 
[V:2] B4A4 | 
[V:3] z8 | 
[V:4] z8 | 
[V:5] z8 | 
[V:1] z4_B4 | 
[V:2] G8 | 
[V:3] z8 | 
[V:4] z8 | 
[V:5] z8 | 
[V:1] A2c4_B2 | 
[V:2] F6G2 | 
[V:3] z8 | 
[V:4] z8 | 
[V:5] z8 | 
[V:1] A2F2G4 | 
[V:2] A4_B4 | 
[V:3] z8 | 
[V:4] z8 | 
[V:5] z8 | 
[V:1] A4_B4 | 
[V:2] A4G4 | 
[V:3] z8 | 
[V:4] z8 | 
[V:5] z8 | 
[V:1] G4d4 | 
[V:2] _B8 | 
[V:3] z8 | 
[V:4] z8 | 
[V:5] z8 | 
[V:1] c4_B4- | 
[V:2] A4G4 | 
[V:3] z8 | 
[V:4] z8 | 
[V:5] z8 | 
[V:1] B2A2A4- | 
[V:2] A8 | 
[V:3] z8 | 
[V:4] z8 | 
[V:5] z8 | 
[V:1] A4G4 | 
[V:2] _B8 | 
[V:3] z8 | 
[V:4] z8 | 
[V:5] z8 | 
[V:1] A8- | 
[V:2] A8 | 
[V:3] z8 | 
[V:4] z8 | 
[V:5] z8 | 
[V:1] A8 | 
[V:2] d4d4- | 
[V:3] z8 | 
[V:4] z8 | 
[V:5] z8 | 
[V:1] z8 | 
[V:2] d4c4 | 
[V:3] z8 | 
[V:4] z8 | 
[V:5] z8 | 
[V:1] D8 | 
[V:2] d8- | 
[V:3] z8 | 
[V:4] z8 | 
[V:5] z8 | 
[V:1] A6G2 | 
[V:2] d4f4- | 
[V:3] z8 | 
[V:4] z8 | 
[V:5] z8 | 
[V:1] A4c4- | 
[V:2] f4e4 | 
[V:3] z8 | 
[V:4] z8 | 
[V:5] z8 | 
[V:1] c4B4 | 
[V:2] d8 | 
[V:3] z8 | 
[V:4] z8 | 
[V:5] z8 | 
[V:1] c6A2 | 
[V:2] c8- | 
[V:3] z8 | 
[V:4] z8 | 
[V:5] z8 | 
[V:1] A8 | 
[V:2] c4d4- | 
[V:3] z8 | 
[V:4] z8 | 
[V:5] z8 | 
[V:1] B4c4- | 
[V:2] d4c4 | 
[V:3] z8 | 
[V:4] z8 | 
[V:5] z8 | 
[V:1] c2B2A4 | 
[V:2] A6B2 | 
[V:3] z8 | 
[V:4] z8 | 
[V:5] z8 | 
[V:1] G4_B4- | 
[V:2] c4G4 | 
[V:3] z8 | 
[V:4] z8 | 
[V:5] z8 | 
[V:1] B8- | 
[V:2] d6c2 | 
[V:3] z8 | 
[V:4] z8 | 
[V:5] z8 | 
[V:1] B8- | 
[V:2] d4G4 | 
[V:3] z8 | 
[V:4] z8 | 
[V:5] z8 | 
[V:1] B4A4 | 
[V:2] d4c4 | 
[V:3] z8 | 
[V:4] z8 | 
[V:5] z8 | 
[V:1] F4G4- | 
[V:2] A4_B4- | 
[V:3] z8 | 
[V:4] z8 | 
[V:5] z8 | 
[V:1] G4A4- | 
[V:2] B4A4- | 
[V:3] z8 | 
[V:4] z8 | 
[V:5] z8 | 
[V:1] A4z4 | 
[V:2] A8- | 
[V:3] z8 | 
[V:4] z8 | 
[V:5] z8 | 
[V:1] A8 | 
[V:2] A4z4 | 
[V:3] z8 | 
[V:4] z8 | 
[V:5] z8 | 
[V:1] G2E4F2 | 
[V:2] z4A4- | 
[V:3] z8 | 
[V:4] z8 | 
[V:5] z8 | 
[V:1] E2DCB,4 | 
[V:2] A4G4- | 
[V:3] z8 | 
[V:4] z8 | 
[V:5] z8 | 
[V:1] D4C4 | 
[V:2] G4A4- | 
[V:3] z8 | 
[V:4] z8 | 
[V:5] z8 | 
[V:1] A,4z4 | 
[V:2] A4c4- | 
[V:3] z8 | 
[V:4] z8 | 
[V:5] z8 | 
[V:1] A8 | 
[V:2] c8- | 
[V:3] z8 | 
[V:4] z8 | 
[V:5] z8 | 
[V:1] G8 | 
[V:2] c4G4- | 
[V:3] z8 | 
[V:4] z8 | 
[V:5] z8 | 
[V:1] _B6A2 | 
[V:2] G4_B4- | 
[V:3] z8 | 
[V:4] z8 | 
[V:5] z8 | 
[V:1] G4F4 | 
[V:2] B4A4 | 
[V:3] z8 | 
[V:4] z8 | 
[V:5] z8 | 
[V:1] z4G4 | 
[V:2] G8 | 
[V:3] z8 | 
[V:4] z8 | 
[V:5] z8 | 
[V:1] A4B4 | 
[V:2] F4G4 | 
[V:3] z8 | 
[V:4] z8 | 
[V:5] z8 | 
[V:1] c6B2 | 
[V:2] A4c4- | 
[V:3] z8 | 
[V:4] z8 | 
[V:5] z8 | 
[V:1] G4d4 | 
[V:2] c2B2G4 | 
[V:3] z8 | 
[V:4] z8 | 
[V:5] z8 | 
[V:1] c2_B4A2 | 
[V:2] d8 | 
[V:3] z8 | 
[V:4] z8 | 
[V:5] z8 | 
[V:1] A4G2F2 | 
[V:2] c4_B4- | 
[V:3] z8 | 
[V:4] z8 | 
[V:5] z8 | 
[V:1] G4A4- | 
[V:2] B4A4- | 
[V:3] z8 | 
[V:4] z8 | 
[V:5] z8 | 
[V:1] A4z4 | 
[V:2] A8- | 
[V:3] z8 | 
[V:4] z8 | 
[V:5] z8 | 
[V:1] z4A4- | 
[V:2] A4z4 | 
[V:3] z8 | 
[V:4] z8 | 
[V:5] z8 | 
[V:1] A2GFE4 | 
[V:2] z4A4- | 
[V:3] z8 | 
[V:4] z8 | 
[V:5] z8 | 
[V:1] F8 | 
[V:2] A4_B4- | 
[V:3] z8 | 
[V:4] z8 | 
[V:5] z8 | 
[V:1] G4A4- | 
[V:2] B2AGF4- | 
[V:3] z8 | 
[V:4] z8 | 
[V:5] z8 | 
[V:1] A4A4- | 
[V:2] F8 | 
[V:3] z8 | 
[V:4] z8 | 
[V:5] z8 | 
[V:1] A2G2F2E2 | 
[V:2] A8 | 
[V:3] z8 | 
[V:4] z8 | 
[V:5] z8 | 
[V:1] E8 | 
[V:2] G4E4- | 
[V:3] z8 | 
[V:4] z8 | 
[V:5] z8 | 
[V:1] G6F2 | 
[V:2] E4G4- | 
[V:3] z8 | 
[V:4] z8 | 
[V:5] z8 | 
[V:1] D6F2- | 
[V:2] G2F2D4- | 
[V:3] z8 | 
[V:4] z8 | 
[V:5] z8 | 
[V:1] F2E2D2B,2 | 
[V:2] D2E2F2G2 | 
[V:3] z8 | 
[V:4] z8 | 
[V:5] z8 | 
[V:1] ^C4D4- | 
[V:2] E4z4 | 
[V:3] z8 | 
[V:4] z8 | 
[V:5] z8 | 
[V:1] D4E4 | 
[V:2] D4C4 | 
[V:3] z8 | 
[V:4] z8 | 
[V:5] z8 | 
[V:1] F4G4 | 
[V:2] D4E4 | 
[V:3] z8 | 
[V:4] z8 | 
[V:5] z8 | 
[V:1] A6GF | 
[V:2] F8 | 
[V:3] z8 | 
[V:4] z8 | 
[V:5] z8 | 
[V:1] E4F4 | 
[V:2] G2A4F2 | 
[V:3] z8 | 
[V:4] z8 | 
[V:5] z8 | 
[V:1] G4A4 | 
[V:2] E4F4 | 
[V:3] z8 | 
[V:4] z8 | 
[V:5] z8 | 
[V:1] _B4G4- | 
[V:2] G8 | 
[V:3] z8 | 
[V:4] z8 | 
[V:5] z8 | 
[V:1] G4^F4 | 
[V:2] A8 | 
[V:3] z8 | 
[V:4] z8 | 
[V:5] z8 | 
[V:1] G4z4 | 
[V:2] G8 | 
[V:3] z8 | 
[V:4] z8 | 
[V:5] z8 | 
[V:1] G4G4 | 
[V:2] c8- | 
[V:3] z8 | 
[V:4] z8 | 
[V:5] z8 | 
[V:1] A4c4 | 
[V:2] c8 | 
[V:3] z8 | 
[V:4] z8 | 
[V:5] z8 | 
[V:1] A4c4- | 
[V:2] F8 | 
[V:3] z8 | 
[V:4] z8 | 
[V:5] z8 | 
[V:1] c2B2G4 | 
[V:2] c8 | 
[V:3] z8 | 
[V:4] z8 | 
[V:5] z8 | 
[V:1] F4z4 | 
[V:2] d8 | 
[V:3] z8 | 
[V:4] z8 | 
[V:5] z8 | 
[V:1] A8 | 
[V:2] c4A4- | 
[V:3] z8 | 
[V:4] z8 | 
[V:5] z8 | 
[V:1] c8- | 
[V:2] A4F4- | 
[V:3] z8 | 
[V:4] z8 | 
[V:5] z8 | 
[V:1] c8 | 
[V:2] F4c4 | 
[V:3] z8 | 
[V:4] z8 | 
[V:5] z8 | 
[V:1] _B4A4- | 
[V:2] d4A4 | 
[V:3] z8 | 
[V:4] z8 | 
[V:5] z8 | 
[V:1] A4G4 | 
[V:2] _B8 | 
[V:3] z8 | 
[V:4] z8 | 
[V:5] z8 | 
[V:1] A4F4 | 
[V:2] A4d4- | 
[V:3] z8 | 
[V:4] z8 | 
[V:5] z8 | 
[V:1] E8 | 
[V:2] d4^c4 | 
[V:3] z8 | 
[V:4] z8 | 
[V:5] z8 | 
[V:1] D8 | 
[V:2] d6c2 | 
[V:3] z8 | 
[V:4] z8 | 
[V:5] z8 | 
[V:1] z8 | 
[V:2] _B2A2A4- | 
[V:3] z8 | 
[V:4] D8- | 
[V:5] D,8 | 
[V:1] D8 | 
[V:2] A4G4 | 
[V:3] z8 | 
[V:4] D8 | 
[V:5] _B,,8 | 
[V:1] C8 | 
[V:2] A8- | 
[V:3] z8 | 
[V:4] E8 | 
[V:5] A,,8 | 
[V:1] D4F4 | 
[V:2] A4F4 | 
[V:3] z8 | 
[V:4] D4A4 | 
[V:5] z4D,4 | 
[V:1] G4A4- | 
[V:2] E4D4 | 
[V:3] z8 | 
[V:4] G4F4 | 
[V:5] E,4F,4 | 
[V:1] A4G2F2 | 
[V:2] F8 | 
[V:3] z8 | 
[V:4] A4B4 | 
[V:5] D,8 | 
[V:1] E8 | 
[V:2] G8 | 
[V:3] z8 | 
[V:4] c8 | 
[V:5] C,4E,4 | 
[V:1] F8 | 
[V:2] A8 | 
[V:3] z8 | 
[V:4] d8 | 
[V:5] D,8 | 
[V:1] G4G4- | 
[V:2] G4E4 | 
[V:3] z8 | 
[V:4] B4G4 | 
[V:5] z8 | 
[V:1] G2E2^F4 | 
[V:2] D8 | 
[V:3] z8 | 
[V:4] A8 | 
[V:5] z8 | 
[V:1] G8- | 
[V:2] d8- | 
[V:3] z8 | 
[V:4] G8 | 
[V:5] G,,8- | 
[V:1] G8 | 
[V:2] d8- | 
[V:3] z8 | 
[V:4] _B8 | 
[V:5] G,,8 | 
[V:1] F8 | 
[V:2] d8 | 
[V:3] z8 | 
[V:4] A8 | 
[V:5] D,8 | 
[V:1] E4F4- | 
[V:2] B4A4- | 
[V:3] z8 | 
[V:4] G4F4 | 
[V:5] z4D,4- | 
[V:1] F2D2D4- | 
[V:2] A2F2G4 | 
[V:3] z8 | 
[V:4] A4_B4 | 
[V:5] D,4G,,4 | 
[V:1] D4C4 | 
[V:2] E8 | 
[V:3] z8 | 
[V:4] A6G2 | 
[V:5] A,,8 | 
[V:1] D4E4 | 
[V:2] z8 | 
[V:3] z8 | 
[V:4] F4E4 | 
[V:5] D,4C,4 | 
[V:1] F8- | 
[V:2] F6E2 | 
[V:3] z8 | 
[V:4] D8 | 
[V:5] _B,,8 | 
[V:1] F4E4- | 
[V:2] C4c4- | 
[V:3] z8 | 
[V:4] A4G4- | 
[V:5] A,,4C,4- | 
[V:1] E4D4 | 
[V:2] c4A4 | 
[V:3] z8 | 
[V:4] G4F4 | 
[V:5] C,4D,4 | 
[V:1] C4B,4 | 
[V:2] A4B4 | 
[V:3] z8 | 
[V:4] E8- | 
[V:5] A,,4G,,4 | 
[V:1] C8 | 
[V:2] A8 | 
[V:3] z8 | 
[V:4] E8 | 
[V:5] A,,8 | 
[V:1] D8- | 
[V:2] G4F4- | 
[V:3] z8 | 
[V:4] D8- | 
[V:5] _B,,8- | 
[V:1] D8- | 
[V:2] F4E2F2 | 
[V:3] z8 | 
[V:4] D8- | 
[V:5] B,,4G,,4 | 
[V:1] D8- | 
[V:2] G4D4 | 
[V:3] z8 | 
[V:4] D8- | 
[V:5] G,,8- | 
[V:1] D8- | 
[V:2] G4A4 | 
[V:3] z8 | 
[V:4] D8- | 
[V:5] G,,8- | 
[V:1] D8- | 
[V:2] _B8 | 
[V:3] z8 | 
[V:4] D8- | 
[V:5] G,,8 | 
[V:1] D8 |]  
[V:2] A8 |]  
[V:3] z8 |]  
[V:4] D8 |]  
[V:5] D,8 |]  



